13/img/meals.svg

<svg width="40" height="40" viewBox="0 0 40 40" fill="none" xmlns="http://www.w3.org/2000/svg">
<path d="M37.7428 26.3004H2.25722C0.997375 26.3004 0 27.3135 0 28.4785V30.2514C0 31.4164 0.997375 32.3788 2.25722 32.3788H2.78215V32.8853C2.78215 35.6712 5.14436 37.9 7.979 37.9H32.021C34.9081 37.9 37.2178 35.6206 37.2178 32.8853V32.3788H37.7428C38.9501 32.3788 40 31.4164 40 30.2007V28.4278C40 27.3135 39.0026 26.3004 37.7428 26.3004ZM35.6955 32.8853C35.6955 34.8101 34.0682 36.3804 32.0735 36.3804H7.92651C5.93176 36.3804 4.30446 34.8101 4.30446 32.8853V32.3788H35.6955V32.8853ZM38.4252 30.2007C38.4252 30.5553 38.1102 30.8592 37.7428 30.8592H2.25722C1.88976 30.8592 1.5748 30.5553 1.5748 30.2007V28.4278C1.5748 28.1239 1.88976 27.82 2.25722 27.82H37.7953C38.1627 27.82 38.4777 28.1239 38.4777 28.4785V30.2007H38.4252Z" fill="#81B3D2"/>
<path d="M8.50395 22.1973L11.3386 24.2234L14.2257 22.1973L17.1129 24.2234L20 22.1973L22.8347 24.2234L25.7218 22.1973L28.6089 24.2234L31.4961 22.1973L34.3832 24.2234L37.6903 21.8427L36.7979 20.627L34.3832 22.2986L31.4961 20.2725L28.6089 22.2986L25.7218 20.2725L22.8347 22.2986L20 20.2725L17.1129 22.2986L14.2257 20.2725L11.3386 22.2986L8.50395 20.2725L5.61682 22.2986L3.20212 20.627L2.25723 21.8427L5.61682 24.2234L8.50395 22.1973Z" fill="#81B3D2"/>
<path d="M37.2179 18.7531C37.2179 18.4492 37.2704 17.4361 37.2179 17.2335C36.8504 9.33164 29.2913 3 20 3C10.7087 3 3.09712 9.33164 2.72967 17.2335C2.72967 17.4361 2.72967 18.4492 2.72967 18.7531H37.2179ZM20 4.51959C28.399 4.51959 35.3281 10.1927 35.6431 17.2335H4.30447C4.67193 10.1927 11.6011 4.51959 20 4.51959Z" fill="#81B3D2"/>
<path d="M20 11.6111C20.5798 11.6111 21.0499 11.1575 21.0499 10.598C21.0499 10.0385 20.5798 9.58496 20 9.58496C19.4202 9.58496 18.9501 10.0385 18.9501 10.598C18.9501 11.1575 19.4202 11.6111 20 11.6111Z" fill="#81B3D2"/>
<path d="M15.8005 9.12866C16.3803 9.12866 16.8504 8.6751 16.8504 8.1156C16.8504 7.5561 16.3803 7.10254 15.8005 7.10254C15.2207 7.10254 14.7506 7.5561 14.7506 8.1156C14.7506 8.6751 15.2207 9.12866 15.8005 9.12866Z" fill="#81B3D2"/>
<path d="M24.1995 9.12866C24.7793 9.12866 25.2493 8.6751 25.2493 8.1156C25.2493 7.5561 24.7793 7.10254 24.1995 7.10254C23.6196 7.10254 23.1496 7.5561 23.1496 8.1156C23.1496 8.6751 23.6196 9.12866 24.1995 9.12866Z" fill="#81B3D2"/>
</svg>

<svg width="40" height="40" fill="none" xmlns="http://www.w3.org/2000/svg"><path d="M37.743 26.3H2.257C.997 26.3 0 27.314 0 28.478v1.773c0 1.165.997 2.128 2.257 2.128h.525v.506c0 2.786 2.362 5.015 5.197 5.015h24.042c2.887 0 5.197-2.28 5.197-5.015v-.506h.525c1.207 0 2.257-.963 2.257-2.178v-1.773c0-1.114-.997-2.128-2.257-2.128Zm-2.047 6.585c0 1.925-1.628 3.495-3.622 3.495H7.927c-1.995 0-3.623-1.57-3.623-3.495v-.506h31.392v.506Zm2.73-2.684c0 .354-.316.658-.683.658H2.257c-.367 0-.682-.304-.682-.658v-1.773c0-.304.315-.608.682-.608h35.538c.368 0 .683.304.683.659V30.2h-.053ZM8.504 22.197l2.835 2.026 2.887-2.026 2.887 2.026L20 22.197l2.835 2.026 2.887-2.026 2.887 2.026 2.887-2.026 2.887 2.026 3.307-2.38-.892-1.216-2.415 1.672-2.887-2.026-2.887 2.026-2.887-2.026-2.887 2.026L20 20.273l-2.887 2.026-2.887-2.026-2.887 2.026-2.835-2.026-2.887 2.026-2.415-1.672-.945 1.216 3.36 2.38 2.887-2.026ZM37.218 18.753c0-.304.052-1.317 0-1.52C36.85 9.332 29.29 3 20 3S3.097 9.332 2.73 17.233v1.52h34.488ZM20 4.52c8.399 0 15.328 5.673 15.643 12.713H4.304C4.672 10.194 11.601 4.52 20 4.52Z" fill="#81B3D2"/><path d="M20 11.611c.58 0 1.05-.454 1.05-1.013 0-.56-.47-1.013-1.05-1.013-.58 0-1.05.454-1.05 1.013 0 .56.47 1.013 1.05 1.013ZM15.8 9.129c.58 0 1.05-.454 1.05-1.013 0-.56-.47-1.013-1.05-1.013-.58 0-1.05.453-1.05 1.013 0 .56.47 1.013 1.05 1.013ZM24.2 9.129c.58 0 1.05-.454 1.05-1.013 0-.56-.47-1.013-1.05-1.013-.58 0-1.05.453-1.05 1.013 0 .56.47 1.013 1.05 1.013Z" fill="#81B3D2"/></svg>
